!!!OTL: Die brave Stiefmutter Ajvim ja lucku zelenu,
!!!ARE: Europa, Osteuropa, Tschechoslowakei, Maehren
!!!ARD1: Europa%Osteuropa%Deutschland@Maehren:?
!!!ARL1: 50.53/7.91:?
!!!ARD2: Europa%Osteuropa%Tschechoslowakei@
!!!ARL2: 49.75/15@
!!!YOR: 5, S. 326
!!    ????
!!!SCT: Q3121A
!!!YEM: Copyright 1995, estate of Helmut Schaffrath.
**kern
*ICvox
*Ivox
*M3/4
*k[b-]
*F:
{4f
=1
2cc
8b-
8a
=2
2g
4a
=3
2b-
8a
8g
=4
2.g}
=5
{4g
4g
4f
=6
4e
2g
=7
4e
4d
4e
=8
2.c}
=9
{4c
4d
4e
=10
2f
4b-
=11
4a
4g
4a
=12
2f}
==
!!!AGN: geistlich
!! Melodievergleich zu Q0121, anderes Lied.
!!!ONB: ESAC (Essen Associative Code) Database: BALLADE
!!!AMT: simple triple
!!!AIN: vox
!!!EED: Helmut Schaffrath
!!!EEV: 1.0
*-
!!!title: @{OTL} [@{SCT}]
